X:6999
T:Hessian Dance,(bass part). JB.41
M:3/8
L:1/8
Q:30
S:James Biggins MS, Leeds, 1779.
R:Misc.
O:England
A:Yorkshire
Z:vmp.Nick Barber & Chris Partington
K:G
"Read as Gmaj, bass clef"eee|eEE|GAB|E2z|eee|fEE|GAB|E3:|!
|:z3|z3|Bcd|e2c|d/f/e/d/c/B/|cce|eBB,|E3:|!
|:z2e|B2c|ABB,|E3|z2e|B2c|ABB,|E3:|]
